about/img/logo.svg

<svg height="331" viewBox="0 0 636 331" width="636" xmlns="http://www.w3.org/2000/svg"><g fill="#fff" fill-rule="evenodd"><path d="m405.874768 124.382422 13.797572-40.5523057h20.165682l-24.552602 61.5664117v41.184837h-18.962817v-40.411743l-24.481846-62.3395057h20.307196zm69.641395 63.604568c-9.858827 0-17.630202-3.478889-23.314358-10.436771-5.684157-6.957883-8.526192-16.808879-8.526192-29.553284 0-12.931822 2.570804-23.0288 7.712489-30.291236 5.141685-7.262437 12.311633-10.8936 21.510061-10.8936 8.585198 0 15.354196 3.104059 20.307195 9.312271 4.953 6.208212 7.429462 14.911291 7.429462 26.1095v9.979943h-37.854877c.141514 6.98131 1.580221 12.17036 4.316164 15.567306 2.735942 3.396946 6.509599 5.095394 11.321084 5.095394 6.132285 0 12.40599-1.897576 18.821304-5.692785v15.391603c-6.037942 3.607791-13.278647 5.411659-21.722332 5.411659zm-2.759514-66.767227c-2.688771 0-4.905795 1.417326-6.651137 4.252019-1.745343 2.834692-2.759513 7.227229-3.042542 13.177742h19.104331c-.094343-5.716241-.967001-10.05021-2.618001-13.002039s-3.915194-4.427722-6.792651-4.427722zm70.348963 50.953937c2.6416 0 5.495428-.655952 8.56157-1.967876v14.618508c-3.066142 2.10845-7.665287 3.162658-13.797572 3.162658-6.839856 0-11.910708-2.026423-15.212707-6.079331-3.302-4.052908-4.952975-10.132179-4.952975-18.237995v-40.552306h-7.641732v-8.363473l9.835192-6.747004 4.811461-16.5863852h12.028653v16.8675102h14.292869v14.829352h-14.292869v41.184837c0 5.247696 2.122682 7.871505 6.36811 7.871505zm41.19717 14.407665h-18.821303v-78.293359h18.821303zm-19.599628-98.7452151c0-3.0923923.908036-5.5404995 2.724136-7.344395s4.351526-2.7058297 7.606354-2.7058297c3.066142 0 5.51902.9019342 7.358705 2.7058297 1.839686 1.8038955 2.759514 4.2520027 2.759514 7.344395 0 3.1861012-.943414 5.6576352-2.830271 7.4146763-1.886857 1.757041-4.316148 2.6355484-7.287948 2.6355484-3.113314 0-5.613362-.8785074-7.500219-2.6355484-1.886856-1.7570411-2.830271-4.2285751-2.830271-7.4146763z"/><path d="m396.776733 320.049371v-102.751249h19.245844v86.024301h26.675306v16.726948zm95.733922 0-3.750109-10.682757h-.424541c-2.783114 4.591734-5.660527 7.754361-8.632327 9.487975-2.971799 1.733614-6.721871 2.600408-11.250328 2.600408-5.802085 0-10.365851-2.155272-13.691436-6.465879-3.325586-4.310608-4.988353-10.307885-4.988353-17.992011 0-8.246379 2.275987-14.372504 6.828029-18.378558 4.552042-4.006053 11.356418-6.219892 20.413331-6.641582l10.472003-.421687v-5.622504c0-7.309291-3.184023-10.963881-9.552165-10.963881-4.717142 0-10.141775 1.827295-16.274059 5.481941l-6.509624-12.931758c7.830456-4.919715 16.34477-7.379536 25.543197-7.379536 8.349342 0 14.705596 2.377827 19.068952 7.133551 4.363357 4.755725 6.545002 11.490948 6.545002 20.205872v52.570406zm-16.344816-13.212883c3.443514 0 6.191208-1.53446 8.243165-4.603425s3.07792-7.156952 3.07792-12.264085v-6.606441l-5.802056.281125c-4.292599.234272-7.441245 1.452469-9.44603 3.654627s-3.007163 5.481919-3.007163 9.839381c0 6.465911 2.311365 9.698818 6.934164 9.698818zm80.945756-66.556383c7.170056 0 12.806957 3.537456 16.91087 10.612475 4.103914 7.075019 6.15584 17.031435 6.15584 29.869549 0 12.978677-2.063719 23.005374-6.191218 30.080393-4.1275 7.075018-9.846949 10.612475-17.158519 10.612475-3.537857 0-6.662917-.761373-9.375273-2.284142-2.712357-1.522769-5.271368-4.205145-7.677111-8.047208h-1.202865l-3.184055 8.925724h-13.868329v-109.35769h18.821303v25.58239c0 1.077652-.023585 2.202141-.070756 3.373502-.047172 1.171361-.353782 5.271062-.919839 12.299226h.990595c2.3114-4.310607 4.811448-7.332673 7.500219-9.066286 2.688771-1.733614 5.778453-2.600408 9.269138-2.600408zm-6.509624 15.883572c-3.585028 0-6.167624 1.663307-7.747867 4.989971-1.580243 3.326665-2.417523 9.183381-2.511866 17.570323v1.897595c0 9.089759.813695 15.485293 2.441109 19.186793s4.280767 5.552222 7.960138 5.552222c6.792685 0 10.188976-8.29311 10.188976-24.879577 0-16.211633-3.443462-24.317327-10.33049-24.317327zm85.120406 40.973993c0 7.637272-2.252402 13.599408-6.757272 17.886588-4.504871 4.287181-11.144149 6.430739-19.918034 6.430739-7.783285 0-14.222087-1.522747-19.316601-4.568284v-16.234979c2.594429 1.780469 5.625147 3.256361 9.092247 4.427722 3.467099 1.17136 6.521403 1.757032 9.163002 1.757032 2.924629 0 5.153445-.714519 6.686516-2.143579 1.533071-1.429061 2.299595-3.314923 2.299595-5.657644 0-2.389576-.801902-4.474567-2.40573-6.255035-1.603828-1.780469-4.551998-3.959167-8.844597-6.53616-5.707743-3.373519-9.799802-6.969543-12.276302-10.788179-2.476499-3.818636-3.714731-8.328307-3.714731-13.529148 0-6.653329 2.299573-11.924373 6.898786-15.813291 4.599214-3.888918 10.908297-5.833347 18.927439-5.833347 6.98137 0 13.561685 1.827295 19.741141 5.481941l-6.155839 13.423726c-5.047343-2.717557-9.48139-4.076315-13.302275-4.076315-2.405743 0-4.210022.632526-5.412894 1.897595-1.202871 1.26507-1.804298 2.811243-1.804298 4.638565 0 2.10845.742939 3.982599 2.228839 5.622504s4.257179 3.678042 8.313922 6.114472c4.905828 2.951829 8.34929 5.458503 10.330489 7.520098 1.9812 2.061595 3.514248 4.404282 4.599191 7.02813s1.627406 5.692767 1.627406 9.206849z"/><path d="m330.052311 230.091663c-2.736414-7.485962-4.518169-51.36792-4.518169-51.36792l3.324846 1.001125s-13.550392-54.187413-24.047522-65.894445l3.007998-2.578407s-26.051482-38.5698662-55.189144-44.7850126c-3.629349-6.3826815-8.25862-13.0800023-8.25862-13.0800023l4.991383.2615183c-7.740142-9.5985397-27.203656-24.3130315-27.203656-24.3130315l10.085639.3187254c-13.463978-9.9417824-29.828967-13.0268814-29.828967-13.0268814-3.242547-7.04464981-12.287114-11.31066745-12.287114-11.31066745.345652 6.17019795-5.176555 6.85668355-5.176555 6.85668355-11.003263-1.6385758-2.41545-11.65391027-2.41545-11.65391027-12.08137-.6864856-22.681373 9.59853967-22.681373 9.59853967-5.764985-2.74185616 0-9.59853967 0-9.59853967-10.945654.68648559-18.743405 13.02688147-18.743405 13.02688147-6.213511 0-9.665918-9.59853972-9.665918-9.59853972-5.176554 5.48371233-2.888666 11.99306682-2.888666 11.99306682-18.208467 6.0966459-31.9769485 15.7728238-31.9769485 15.7728238h6.2135105c-8.1598619 5.3815568-19.3935604 24.7379988-24.8293536 34.7247298-29.1788116 6.1375081-55.3002466 44.8136161-55.3002466 44.8136161l3.0079976 2.578407c-10.5012448 11.707032-24.05163636 65.894445-24.05163636 65.894445l3.32484555-1.001125s-1.7817551 43.877871-4.51816882 51.36792c0 0 1.90108742-.604762 3.98323079-3.256721 0 0-3.83509411 22.584559-2.58416213 29.388122 1.24681708 6.807649 2.75698826 15.948531 8.96638417 16.230481 0 0 1.5677799 5.802437 11.0526425 3.019719 0 0 2.9627337 5.663506 10.2543504 4.233328 4.7691782-.931659 10.7399095-5.737058 13.5174723-11.60079 7.4726726 4.834003 12.5340093-8.793553 12.5340093-8.793553 1.9545812-11.678428.6048914-20.034755-1.0451866-22.23723-1.654193-2.206561-8.6495363-16.720828-8.6495363-16.720828l6.2258556 2.341407c-8.3656077-15.147632-.6501555-55.678886-.6501555-55.678886l2.9709635 5.65942c.3168479-14.14242 10.8139778-33.580587 10.8139778-33.580587-1.7282613 10.971511-2.8927802 23.001354-2.6006217 34.761506.9217393 37.478844 8.7030301 65.359149 6.4233711 77.699545l6.4604053-10.060283s.9176245 25.596106 4.6045819 33.364017c3.6828425 7.767912 2.5306683 21.938936 1.608929 25.596106l6.2135108-10.056197s2.3002335 24.909621 3.9132774 31.995133c1.608929 7.085512 11.0444126 8.912054 23.0105646 8.000826 11.970267-.915314 18.640533 2.513028 21.401636-7.771998 2.761103-10.285025-5.061337-13.484538 6.67438-38.16533 0 0 5.983076.992952 14.51328 1.56911l-.181056.396364c1.847594-.012259 3.645809-.053121 5.3823-.122587 1.736491.06538 3.534706.110328 5.382299.122587l-.176941-.396364c8.530204-.576158 14.509165-1.56911 14.509165-1.56911 11.735718 24.680792 3.913278 27.880305 6.674381 38.16533 2.761103 10.285026 9.435484 6.856684 21.401636 7.771998s21.401635-.915314 23.014679-8.000826 3.913278-31.995133 3.913278-31.995133l6.21351 10.056197c-.921739-3.65717-2.069798-17.824108 1.613044-25.596106 3.682843-7.767911 4.600467-33.364017 4.600467-33.364017l6.464521 10.056197c-2.279659-12.340396 5.501631-40.220701 6.423371-77.699545.288043-11.760152-.872361-23.785909-2.600622-34.761506 0 0 10.49713 19.438166 10.813978 33.580587l2.966848-5.65942s7.715453 40.531254-.650155 55.678885l6.221741-2.341406s-6.995344 14.514267-8.649537 16.720828c-1.654193 2.202474-2.999768 10.558802-1.045186 22.23723 0 0 5.061336 13.627556 12.534009 8.793553 2.777563 5.867818 8.752409 10.669131 13.517472 11.60079 7.291617 1.426092 10.254351-4.233328 10.254351-4.233328 9.484862 2.782718 11.052642-3.01972 11.052642-3.01972 6.209396-.281949 7.715452-9.422832 8.966384-16.230481 1.246817-6.803562-2.584162-29.388121-2.584162-29.388121 2.078029 2.651959 3.979116 3.260807 3.979116 3.260807zm-284.4923839 25.747296c-3.3577648-4.711416-9.3861048 3.877826-9.3861048 3.877826s-.5719722-11.899084 5.176554-14.232317c0 0 4.9502342-1.11554 5.7402965 5.651247.2180901 1.871491-.5225933 3.367048-1.5307457 4.703244zm60.8265679-180.9379897c0-3.2076856 2.617081-5.806524 5.847284-5.806524s5.851399 2.5988384 5.851399 5.806524c0 3.2076857-2.617081 5.806524-5.851399 5.806524-3.226088.0040863-5.847284-2.5988383-5.847284-5.806524zm114.768895 27.5411487c-.699535.457657-17.529508 11.196253-55.909253 11.196253-38.379746 0-55.213834-10.738596-55.909253-11.196253-.954659-.625193-1.218013-1.900094-.588432-2.8480983.629581-.9480039 1.913432-1.2095223 2.868091-.58433.156366.1021556 16.648917 10.5138533 53.629594 10.5138533 36.976562 0 53.473227-10.4116977 53.633709-10.5179395.958773-.6170198 2.23851-.3555015 2.86809.5925024.621352.9480041.357997 2.2188191-.592546 2.8440121zm-2.90924-21.7305384c-3.230203 0-5.847284-2.5988384-5.847284-5.806524 0-3.2076857 2.617081-5.806524 5.847284-5.806524s5.851399 2.5988383 5.851399 5.806524c0 3.2035994-2.621196 5.806524-5.851399 5.806524zm76.068186 179.0052054s-6.02834-8.589242-9.386104-3.877826c-1.012268-1.336196-1.752951-2.831753-1.534861-4.703244.790062-6.766787 5.740296-5.651247 5.740296-5.651247 5.752642 2.33732 5.180669 14.232317 5.180669 14.232317z"/></g></svg>

<?xml version="1.0" encoding="UTF-8" standalone="no"?>
<svg width="636px" height="331px" viewBox="0 0 636 331" version="1.1" xmlns="http://www.w3.org/2000/svg" xmlns:xlink="http://www.w3.org/1999/xlink">
    <title>Yeti Labs</title>
    <g fill="#FFFFFF" fill-rule="evenodd">
        <path d="M405.874768,124.382422 L419.67234,83.8301163 L439.838022,83.8301163 L415.28542,145.396528 L415.28542,186.581365 L396.322603,186.581365 L396.322603,146.169622 L371.840757,83.8301163 L392.147953,83.8301163 L405.874768,124.382422 Z M475.516163,187.98699 C465.657336,187.98699 457.885961,184.508101 452.201805,177.550219 C446.517648,170.592336 443.675613,160.74134 443.675613,147.996935 C443.675613,135.065113 446.246417,124.968135 451.388102,117.705699 C456.529787,110.443262 463.699735,106.812099 472.898163,106.812099 C481.483361,106.812099 488.252359,109.916158 493.205358,116.12437 C498.158358,122.332582 500.63482,131.035661 500.63482,142.23387 L500.63482,152.213813 L462.779943,152.213813 C462.921457,159.195123 464.360164,164.384173 467.096107,167.781119 C469.832049,171.178065 473.605706,172.876513 478.417191,172.876513 C484.549476,172.876513 490.823181,170.978937 497.238495,167.183728 L497.238495,182.575331 C491.200553,186.183122 483.959848,187.98699 475.516163,187.98699 L475.516163,187.98699 Z M472.756649,121.219763 C470.067878,121.219763 467.850854,122.637089 466.105512,125.471782 C464.360169,128.306474 463.345999,132.699011 463.06297,138.649524 L482.167301,138.649524 C482.072958,132.933283 481.2003,128.599314 479.5493,125.647485 C477.8983,122.695656 475.634106,121.219763 472.756649,121.219763 L472.756649,121.219763 Z M543.105612,172.1737 C545.747212,172.1737 548.60104,171.517748 551.667182,170.205824 L551.667182,184.824332 C548.60104,186.932782 544.001895,187.98699 537.86961,187.98699 C531.029754,187.98699 525.958902,185.960567 522.656903,181.907659 C519.354903,177.854751 517.703928,171.77548 517.703928,163.669664 L517.703928,123.117358 L510.062196,123.117358 L510.062196,114.753885 L519.897388,108.006881 L524.708849,91.4204958 L536.737502,91.4204958 L536.737502,108.288006 L551.030371,108.288006 L551.030371,123.117358 L536.737502,123.117358 L536.737502,164.302195 C536.737502,169.549891 538.860184,172.1737 543.105612,172.1737 L543.105612,172.1737 Z M584.302782,186.581365 L565.481479,186.581365 L565.481479,108.288006 L584.302782,108.288006 L584.302782,186.581365 Z M564.703154,87.8361499 C564.703154,84.7437576 565.61119,82.2956504 567.42729,80.4917549 C569.24339,78.6878594 571.778816,77.7859252 575.033644,77.7859252 C578.099786,77.7859252 580.552664,78.6878594 582.392349,80.4917549 C584.232035,82.2956504 585.151863,84.7437576 585.151863,87.8361499 C585.151863,91.0222511 584.208449,93.4937851 582.321592,95.2508262 C580.434735,97.0078672 578.005444,97.8863746 575.033644,97.8863746 C571.92033,97.8863746 569.420282,97.0078672 567.533425,95.2508262 C565.646569,93.4937851 564.703154,91.0222511 564.703154,87.8361499 L564.703154,87.8361499 Z" id="Yeti"></path>
        <path d="M396.776733,320.049371 L396.776733,217.298122 L416.022577,217.298122 L416.022577,303.322423 L442.697883,303.322423 L442.697883,320.049371 L396.776733,320.049371 Z M492.510655,320.049371 L488.760546,309.366614 L488.336005,309.366614 C485.552891,313.958348 482.675478,317.120975 479.703678,318.854589 C476.731879,320.588203 472.981807,321.454997 468.45335,321.454997 C462.651265,321.454997 458.087499,319.299725 454.761914,314.989118 C451.436328,310.67851 449.773561,304.681233 449.773561,296.997107 C449.773561,288.750728 452.049548,282.624603 456.60159,278.618549 C461.153632,274.612496 467.958008,272.398657 477.014921,271.976967 L487.486924,271.55528 L487.486924,265.932776 C487.486924,258.623485 484.302901,254.968895 477.934759,254.968895 C473.217617,254.968895 467.792984,256.79619 461.6607,260.450836 L455.151076,247.519078 C462.981532,242.599363 471.495846,240.139542 480.694273,240.139542 C489.043615,240.139542 495.399869,242.517369 499.763225,247.273093 C504.126582,252.028818 506.308227,258.764041 506.308227,267.478965 L506.308227,320.049371 L492.510655,320.049371 Z M476.165839,306.836488 C479.609353,306.836488 482.357047,305.302028 484.409004,302.233063 C486.460961,299.164098 487.486924,295.076111 487.486924,289.968978 L487.486924,283.362537 L481.684868,283.643662 C477.392269,283.877934 474.243623,285.096131 472.238838,287.298289 C470.234053,289.500447 469.231675,292.780208 469.231675,297.13767 C469.231675,303.603581 471.54304,306.836488 476.165839,306.836488 L476.165839,306.836488 Z M557.111595,240.280105 C564.281651,240.280105 569.918552,243.817561 574.022465,250.89258 C578.126379,257.967599 580.178305,267.924015 580.178305,280.762129 C580.178305,293.740806 578.114586,303.767503 573.987087,310.842522 C569.859587,317.91754 564.140138,321.454997 556.828568,321.454997 C553.290711,321.454997 550.165651,320.693624 547.453295,319.170855 C544.740938,317.648086 542.181927,314.96571 539.776184,311.123647 L538.573319,311.123647 L535.389264,320.049371 L521.520935,320.049371 L521.520935,210.691681 L540.342238,210.691681 L540.342238,236.274071 C540.342238,237.351723 540.318653,238.476212 540.271482,239.647573 C540.22431,240.818934 539.9177,244.918635 539.351643,251.946799 L540.342238,251.946799 C542.653638,247.636192 545.153686,244.614126 547.842457,242.880513 C550.531228,241.146899 553.62091,240.280105 557.111595,240.280105 L557.111595,240.280105 Z M550.601971,256.163677 C547.016943,256.163677 544.434347,257.826984 542.854104,261.153648 C541.273861,264.480313 540.436581,270.337029 540.342238,278.723971 L540.342238,280.621566 C540.342238,289.711325 541.155933,296.106859 542.783347,299.808359 C544.410761,303.509859 547.064114,305.360581 550.743485,305.360581 C557.53617,305.360581 560.932461,297.067471 560.932461,280.481004 C560.932461,264.269371 557.488999,256.163677 550.601971,256.163677 L550.601971,256.163677 Z M635.722377,297.13767 C635.722377,304.774942 633.469975,310.737078 628.965105,315.024258 C624.460234,319.311439 617.820956,321.454997 609.047071,321.454997 C601.263786,321.454997 594.824984,319.93225 589.73047,316.886713 L589.73047,300.651734 C592.324899,302.432203 595.355617,303.908095 598.822717,305.079456 C602.289816,306.250816 605.34412,306.836488 607.985719,306.836488 C610.910348,306.836488 613.139164,306.121969 614.672235,304.692909 C616.205306,303.263848 616.97183,301.377986 616.97183,299.035265 C616.97183,296.645689 616.169928,294.560698 614.5661,292.78023 C612.962272,290.999761 610.014102,288.821063 605.721503,286.24407 C600.01376,282.870551 595.921701,279.274527 593.445201,275.455891 C590.968702,271.637255 589.73047,267.127584 589.73047,261.926743 C589.73047,255.273414 592.030043,250.00237 596.629256,246.113452 C601.22847,242.224534 607.537553,240.280105 615.556695,240.280105 C622.538065,240.280105 629.11838,242.1074 635.297836,245.762046 L629.141997,259.185772 C624.094654,256.468215 619.660607,255.109457 615.839722,255.109457 C613.433979,255.109457 611.6297,255.741983 610.426828,257.007052 C609.223957,258.272122 608.62253,259.818295 608.62253,261.645617 C608.62253,263.754067 609.365469,265.628216 610.851369,267.268121 C612.337269,268.908026 615.108548,270.946163 619.165291,273.382593 C624.071119,276.334422 627.514581,278.841096 629.49578,280.902691 C631.47698,282.964286 633.010028,285.306973 634.094971,287.930821 C635.179914,290.554669 635.722377,293.623588 635.722377,297.13767 L635.722377,297.13767 Z" id="Labs"></path>
        <path d="M330.052311,230.091663 C327.315897,222.605701 325.534142,178.723743 325.534142,178.723743 L328.858988,179.724868 C328.858988,179.724868 315.308596,125.537455 304.811466,113.830423 L307.819464,111.252016 C307.819464,111.252016 281.767982,72.6821498 252.63032,66.4670034 C249.000971,60.0843219 244.3717,53.3870011 244.3717,53.3870011 L249.363083,53.6485194 C241.622941,44.0499797 222.159427,29.3354879 222.159427,29.3354879 L232.245066,29.6542133 C218.781088,19.7124309 202.416099,16.6273319 202.416099,16.6273319 C199.173552,9.58268209 190.128985,5.31666445 190.128985,5.31666445 C190.474637,11.4868624 184.95243,12.173348 184.95243,12.173348 C173.949167,10.5347722 182.53698,0.519437727 182.53698,0.519437727 C170.45561,-0.16704787 159.855607,10.1179774 159.855607,10.1179774 C154.090622,7.37612124 159.855607,0.519437727 159.855607,0.519437727 C148.909953,1.20592332 141.112202,13.5463192 141.112202,13.5463192 C134.898691,13.5463192 131.446284,3.94777948 131.446284,3.94777948 C126.26973,9.43149181 128.557618,15.9408463 128.557618,15.9408463 C110.349151,22.0374922 96.5806695,31.7136701 96.5806695,31.7136701 L102.79418,31.7136701 C94.6343181,37.0952269 83.4006196,56.4516689 77.9648264,66.4383999 C48.7860148,72.575908 22.6645798,111.252016 22.6645798,111.252016 L25.6725774,113.830423 C15.1713326,125.537455 1.62094104,179.724868 1.62094104,179.724868 L4.94578659,178.723743 C4.94578659,178.723743 3.16403149,222.601614 0.427617766,230.091663 C0.427617766,230.091663 2.32870519,229.486901 4.41084856,226.834942 C4.41084856,226.834942 0.575754449,249.419501 1.82668643,256.223064 C3.07350351,263.030713 4.58367469,272.171595 10.7930706,272.453545 C10.7930706,272.453545 12.3608505,278.255982 21.8457131,275.473264 C21.8457131,275.473264 24.8084468,281.13677 32.1000635,279.706592 C36.8692417,278.774933 42.839973,273.969534 45.6175358,268.105802 C53.0902084,272.939805 58.1515451,259.312249 58.1515451,259.312249 C60.1061263,247.633821 58.7564365,239.277494 57.1063585,237.075019 C55.4521655,234.868458 48.4568222,220.354191 48.4568222,220.354191 L54.6826778,222.695598 C46.3170701,207.547966 54.0325223,167.016712 54.0325223,167.016712 L57.0034858,172.676132 C57.3203337,158.533712 67.8174636,139.095545 67.8174636,139.095545 C66.0892023,150.067056 64.9246834,162.096899 65.2168419,173.857051 C66.1385812,211.335895 73.919872,239.2162 71.640213,251.556596 L78.1006183,241.496313 C78.1006183,241.496313 79.0182428,267.092419 82.7052002,274.86033 C86.3880427,282.628242 85.2358685,296.799266 84.3141292,300.456436 L90.52764,290.400239 C90.52764,290.400239 92.8278735,315.30986 94.4409174,322.395372 C96.0498464,329.480884 105.48533,331.307426 117.451482,330.396198 C129.421749,329.480884 136.092015,332.909226 138.853118,322.6242 C141.614221,312.339175 133.791781,309.139662 145.527498,284.45887 C145.527498,284.45887 151.510574,285.451822 160.040778,286.02798 L159.859722,286.424344 C161.707316,286.412085 163.505531,286.371223 165.242022,286.301757 C166.978513,286.367137 168.776728,286.412085 170.624321,286.424344 L170.44738,286.02798 C178.977584,285.451822 184.956545,284.45887 184.956545,284.45887 C196.692263,309.139662 188.869823,312.339175 191.630926,322.6242 C194.392029,332.909226 201.06641,329.480884 213.032562,330.396198 C224.998714,331.311512 234.434197,329.480884 236.047241,322.395372 C237.660285,315.30986 239.960519,290.400239 239.960519,290.400239 L246.174029,300.456436 C245.25229,296.799266 244.104231,282.632328 247.787073,274.86033 C251.469916,267.092419 252.38754,241.496313 252.38754,241.496313 L258.852061,251.55251 C256.572402,239.212114 264.353692,211.331809 265.275432,173.852965 C265.563475,162.092813 264.403071,150.067056 262.67481,139.091459 C262.67481,139.091459 273.17194,158.529625 273.488788,172.672046 L276.455636,167.012626 C276.455636,167.012626 284.171089,207.54388 275.805481,222.691511 L282.027222,220.350105 C282.027222,220.350105 275.031878,234.864372 273.377685,237.070933 C271.723492,239.273407 270.377917,247.629735 272.332499,259.308163 C272.332499,259.308163 277.393835,272.935719 284.866508,268.101716 C287.644071,273.969534 293.618917,278.770847 298.38398,279.702506 C305.675597,281.128598 308.638331,275.469178 308.638331,275.469178 C318.123193,278.251896 319.690973,272.449458 319.690973,272.449458 C325.900369,272.167509 327.406425,263.026626 328.657357,256.218977 C329.904174,249.415415 326.073195,226.830856 326.073195,226.830856 C328.151224,229.482815 330.052311,230.091663 330.052311,230.091663 L330.052311,230.091663 Z M45.5599271,255.838959 C42.2021623,251.127543 36.1738223,259.716785 36.1738223,259.716785 C36.1738223,259.716785 35.6018501,247.817701 41.3503763,245.484468 C41.3503763,245.484468 46.3006105,244.368928 47.0906728,251.135715 C47.3087629,253.007206 46.5680795,254.502763 45.5599271,255.838959 L45.5599271,255.838959 Z M106.386495,74.9009693 C106.386495,71.6932837 109.003576,69.0944453 112.233779,69.0944453 C115.463982,69.0944453 118.085178,71.6932837 118.085178,74.9009693 C118.085178,78.108655 115.468097,80.7074933 112.233779,80.7074933 C109.007691,80.7115796 106.386495,78.108655 106.386495,74.9009693 L106.386495,74.9009693 Z M221.15539,102.442118 C220.455855,102.899775 203.625882,113.638371 165.246137,113.638371 C126.866391,113.638371 110.032303,102.899775 109.336884,102.442118 C108.382225,101.816925 108.118871,100.542024 108.748452,99.5940197 C109.378033,98.6460158 110.661884,98.3844974 111.616543,99.0096897 C111.772909,99.1118453 128.26546,109.523543 165.246137,109.523543 C202.222699,109.523543 218.719364,99.1118453 218.879846,99.0056035 C219.838619,98.3885837 221.118356,98.650102 221.747936,99.5981059 C222.369288,100.54611 222.105933,101.816925 221.15539,102.442118 L221.15539,102.442118 Z M218.24615,80.7115796 C215.015947,80.7115796 212.398866,78.1127412 212.398866,74.9050556 C212.398866,71.6973699 215.015947,69.0985316 218.24615,69.0985316 C221.476353,69.0985316 224.097549,71.6973699 224.097549,74.9050556 C224.097549,78.108655 221.476353,80.7115796 218.24615,80.7115796 L218.24615,80.7115796 Z M294.314336,259.716785 C294.314336,259.716785 288.285996,251.127543 284.928232,255.838959 C283.915964,254.502763 283.175281,253.007206 283.393371,251.135715 C284.183433,244.368928 289.133667,245.484468 289.133667,245.484468 C294.886309,247.821788 294.314336,259.716785 294.314336,259.716785 L294.314336,259.716785 Z" id="Shape"></path>
    </g>
</svg>
